X: 8154
T: Cook In The Kitchen, The
R: jig
M: 6/8
K: Dmajor
|:A,DD DED|CEE E2B|AFF GEE|FDD EB,B,|
A,DD DED|CEE E2B|AFF GFE|1 DFD D2B,:|2 D3 DFA||
|:~d3 dcB|~c3 cBA|~B3 Bcd|~e2d B2c|
d2A FGA|B2G EFG|A2F EDE|1 FDD DFA:|2 FDD D2B,||

